X:211
T:Sage Leaf. (p)1670.PLFD.211
M:6/4
L:1/4
Q:3/4=70
S:Playford, Dancing Master,4th Ed.,1670.
O:England
H:1670.
Z:Chris Partington
K:G
dg=f ecf|d>cB/2A/2 B G2|dg=f ecf|d>cB/2A/2 B G2:|
|:B2 c d2B|e2 d cdB|A2 G F>EF|G6:|
|:d2 c B>AG|def g3|d2 c B>AG|de>f g3|
d2 c B>cd|e2 d c>dB|A2 G F>EF|1G6:|2G3 G2|
|:G|F>GA AFD|G>AB BAG| F>GA AFD| G3-G2:|
|:G|B2cd2B|e2dc>dB|A2GF>EF|1G3-G2|2G6|]
